img/bybit.svg

<svg width="82" height="32" viewBox="0 0 82 32" fill="none" xmlns="http://www.w3.org/2000/svg">
<g clip-path="url('#clip0_20_2513')">
<path d="M58.4443 23.3949V2.35278H62.6801V23.3949H58.4443Z" fill="#F7A600"></path>
<path d="M9.08032 29.6454H0V8.60327H8.71556C12.9513 8.60327 15.4188 10.9092 15.4188 14.5139C15.4188 16.8481 13.8335 18.3568 12.7364 18.8594C14.0465 19.4495 15.7223 20.7794 15.7223 23.5879C15.7223 27.5174 12.9513 29.6454 9.08032 29.6454ZM8.38002 12.2683H4.23572V17.1154H8.37908C10.1765 17.1154 11.1822 16.1403 11.1822 14.6909C11.1822 13.2443 10.1774 12.2683 8.38002 12.2683ZM8.65336 20.8095H4.23667V25.9823H8.65524C10.5752 25.9823 11.4875 24.8002 11.4875 23.3809C11.4875 21.9625 10.5733 20.8095 8.65524 20.8095H8.65336ZM28.6416 21.0166V29.6454H24.436V21.0166L17.9146 8.60327H22.5161L26.5689 17.0853L30.5606 8.60327H35.161L28.6416 21.0166ZM47.1698 29.6454H38.0895V8.60327H46.8041C51.0398 8.60327 53.5083 10.9092 53.5083 14.5139C53.5083 16.8481 51.923 18.3568 50.8259 18.8594C52.136 19.4495 53.8118 20.7794 53.8118 23.5879C53.8118 27.5174 51.0408 29.6454 47.1698 29.6454ZM46.4695 12.2683H42.3252V17.1154H46.4695C48.2669 17.1154 49.2726 16.1403 49.2726 14.6909C49.2726 13.2443 48.2669 12.2683 46.4695 12.2683ZM46.7428 20.8095H42.3243V25.9823H46.7428C48.6637 25.9823 49.5761 24.8002 49.5761 23.3809C49.5761 21.9625 48.6637 20.8095 46.7428 20.8095ZM76.3316 12.2692V29.6473H72.0959V12.2683H66.4294V8.60327H82V12.2683L76.3316 12.2692Z" fill="white"></path>
</g>
<defs>
<clipPath id="clip0_20_2513">
<rect width="82" height="32" fill="white"></rect>
</clipPath>
</defs>
</svg>

<svg width="82" height="32" fill="none" xmlns="http://www.w3.org/2000/svg"><g clip-path="url('#clip0_20_2513')"><path d="M58.444 23.395V2.353h4.236v21.042h-4.236Z" fill="#F7A600"/><path d="M9.08 29.645H0V8.603h8.716c4.235 0 6.703 2.306 6.703 5.91 0 2.335-1.585 3.844-2.683 4.346 1.31.59 2.986 1.92 2.986 4.729 0 3.93-2.77 6.057-6.642 6.057Zm-.7-17.377H4.236v4.847h4.143c1.798 0 2.803-.975 2.803-2.424 0-1.447-1.005-2.423-2.802-2.423Zm.273 8.541H4.237v5.173h4.418c1.92 0 2.833-1.182 2.833-2.601s-.915-2.572-2.833-2.572h-.002Zm19.989.208v8.628h-4.206v-8.628L17.915 8.603h4.601l4.053 8.482 3.992-8.482h4.6l-6.52 12.414Zm18.528 8.628h-9.08V8.603h8.714c4.236 0 6.704 2.306 6.704 5.91 0 2.335-1.585 3.844-2.682 4.346 1.31.59 2.986 1.92 2.986 4.729 0 3.93-2.771 6.057-6.642 6.057Zm-.7-17.377h-4.145v4.847h4.144c1.798 0 2.804-.975 2.804-2.424 0-1.447-1.006-2.423-2.804-2.423Zm.273 8.541h-4.419v5.173h4.419c1.92 0 2.833-1.182 2.833-2.601s-.912-2.572-2.833-2.572Zm29.589-8.54v17.378h-4.236V12.268h-5.667V8.603H82v3.665l-5.668.001Z" fill="#fff"/></g><defs><clipPath id="clip0_20_2513"><path fill="#fff" d="M0 0h82v32H0z"/></clipPath></defs></svg>
